packages/sources/icons/src/vitamix/bank-card-fill.svg

<svg width="16" height="16" viewBox="0 0 16 16" fill="none" xmlns="http://www.w3.org/2000/svg">
<path fill-rule="evenodd" clip-rule="evenodd" d="M14.6667 5.33333H1.33333V2.66667C1.33333 2.29848 1.63181 2 2 2H14C14.3682 2 14.6667 2.29848 14.6667 2.66667V5.33333ZM14.6667 6.66667V13.3333C14.6667 13.7015 14.3682 14 14 14H2C1.63181 14 1.33333 13.7015 1.33333 13.3333V6.66667H14.6667ZM10 12V10.6667H12.6667V12H10Z" fill="#001018"/>
</svg>

<svg width="16" height="16" fill="none" xmlns="http://www.w3.org/2000/svg"><path fill-rule="evenodd" clip-rule="evenodd" d="M14.667 5.333H1.333V2.667C1.333 2.298 1.632 2 2 2h12c.368 0 .667.298.667.667v2.666zm0 1.334v6.666A.667.667 0 0 1 14 14H2a.667.667 0 0 1-.667-.667V6.667h13.334zM10 12v-1.333h2.667V12H10z" fill="#001018"/></svg>
